X: 78
T:Trim The Bonnet (#274)
M:4/4
L:1/8
S:Rice-Walsh manuscript
R:Reel
K:G
BEEF G2 EF|GBAG FDDc|BEEF G2 ef|1gfed edBA:|2gfed Bdef|
|:gfga beeg|fefg afdf|gfga bgef|1gfed Bdef:|2gfed edBA||
%
% This tune is a variant of "Tie The Bonnet" in O'Neill's Dance
% Music of Ireland 1907.

